Catalina-light/actions/22/im-identi.ca.svg

<svg xmlns="http://www.w3.org/2000/svg" viewBox="0 0 22 22">
  <defs id="defs3051">
    <style type="text/css" id="current-color-scheme">
      .ColorScheme-Text {
        color:#4d4d4d
      }
      </style>
  </defs>
 <path 
     style="fill:currentColor;fill-opacity:1;stroke:none"      
	 class="ColorScheme-Text"
        d="M 11 3 C 8.7855652 3 6.7021957 3.7655619 5.1328125 5.15625 C 3.5497486 6.5590507 2.6777344 8.4298679 2.6777344 10.421875 C 2.6777344 12.323119 3.4711919 14.11151 4.9199219 15.490234 C 4.8936959 15.554245 4.8745087 15.62065 4.8613281 15.691406 L 4.3847656 18.242188 C 4.3281905 18.545199 4.4047178 18.725939 4.4785156 18.824219 C 4.5637772 18.937727 4.6898292 19 4.8339844 19 C 4.9428358 19 5.0597438 18.96551 5.1816406 18.896484 L 7.9492188 17.330078 C 8.9078198 17.666041 9.9392729 17.841797 11 17.841797 C 13.214435 17.841797 15.297764 17.076235 16.867188 15.685547 C 18.450211 14.282787 19.322266 12.413869 19.322266 10.421875 C 19.322266 8.4298205 18.450211 6.5590507 16.867188 5.15625 C 15.297757 3.7655146 13.214387 3 11 3 z M 11 7 C 12.459105 7 13.646502 8.1873623 13.646484 9.6464844 C 13.646484 10.234162 13.27001 11.192835 12.498047 12.576172 C 11.952085 13.554572 11.415159 14.370039 11.392578 14.404297 L 11 15 L 10.607422 14.404297 C 10.584858 14.370056 10.047984 13.554572 9.5019531 12.576172 C 8.7300244 11.192852 8.3535156 10.234162 8.3535156 9.6464844 C 8.3535156 8.1873795 9.540878 7 11 7 z M 11 8.2558594 C 10.242457 8.2558594 9.6289062 8.8713459 9.6289062 9.6289062 C 9.6289062 10.386467 10.242457 11 11 11 C 11.757526 11 12.371094 10.386467 12.371094 9.6289062 C 12.371094 8.8713459 11.757543 8.2558594 11 8.2558594 z "
     />
</svg>

<svg viewBox="0 0 22 22" xmlns="http://www.w3.org/2000/svg">
<defs>
<style id="current-color-scheme" type="text/css">.ColorScheme-Text {
        color:#4d4d4d
      }</style>
</defs>
<path class="ColorScheme-Text" d="m11 3c-2.2144 0-4.2978 0.76556-5.8672 2.1562-1.5831 1.4028-2.4551 3.2736-2.4551 5.2656 0 1.9012 0.79346 3.6896 2.2422 5.0684-0.026226 0.064011-0.045413 0.13042-0.058594 0.20117l-0.47656 2.5508c-0.056575 0.30301 0.019952 0.48375 0.09375 0.58203 0.085262 0.11351 0.21131 0.17578 0.35547 0.17578 0.10885 0 0.22576-0.03449 0.34766-0.10352l2.7676-1.5664c0.9586 0.33596 1.9901 0.51172 3.0508 0.51172 2.2144 0 4.2978-0.76556 5.8672-2.1562 1.583-1.4028 2.4551-3.2717 2.4551-5.2637 0-1.9921-0.87206-3.8628-2.4551-5.2656-1.5694-1.3907-3.6528-2.1562-5.8672-2.1562zm0 4c1.4591 0 2.6465 1.1874 2.6465 2.6465 0 0.58768-0.37647 1.5464-1.1484 2.9297-0.54596 0.9784-1.0829 1.7939-1.1055 1.8281l-0.39258 0.5957-0.39258-0.5957c-0.022564-0.034241-0.55944-0.84972-1.1055-1.8281-0.77193-1.3833-1.1484-2.342-1.1484-2.9297 0-1.4591 1.1874-2.6465 2.6465-2.6465zm0 1.2559c-0.75754 0-1.3711 0.61549-1.3711 1.373 0 0.75756 0.61355 1.3711 1.3711 1.3711 0.75753 0 1.3711-0.61353 1.3711-1.3711 0-0.75756-0.61355-1.373-1.3711-1.373z" fill="currentColor"/>
</svg>
